symbols/web/1x_mobiledata/materialsymbolsoutlined/1x_mobiledata_wght600grad200fill1_48px.svg

<svg xmlns="http://www.w3.org/2000/svg" height="48" width="48"><path d="M11.55 34.1V17.7H7.8v-3.85h7.6V34.1Zm9.55 0 6.7-10.75-6-9.45h4.55l3.7 6.1 3.55-6.1h4.45l-5.75 9.45 6.55 10.75H34.4l-4.35-7.45-4.4 7.45Z"/></svg>

<svg xmlns="http://www.w3.org/2000/svg" height="48" width="48"><path d="M11.55 34.1V17.7H7.8V13.85H15.4V34.1ZM21.1 34.1 27.8 23.35 21.8 13.9H26.35L30.05 20L33.6 13.9H38.05L32.3 23.35L38.85 34.1H34.4L30.05 26.65L25.65 34.1Z"/></svg>
